X:033
T:Crosses of Annagh (reel) 
B:CRE3.171 (CrosbhÃÂÃÂÃÂÃÂ³ithre an Eanaigh)
F:file ID: cre.3/033cross_a
R:reel
L:1/8
Q:180
M:C
K:G
"A dorian"
EAAG A2Bd|eggd edBA|G3B AEGE|DEGE AGED|
EAAG A2Bd|g3d edBA|GDBD gedB|GAAG A3 z:|
egg2 a2ga|b2af gedB|d^cde g3a|bgaf gefd|
egg2 a2ga|b2af gedB|GDBD gedB|GA (3BAG A3z:|

%%%

